/* XPM */
static char * NewConnection48x48_xpm[] = {
"48 48 258 2",
"  	c none",
". 	c #EEEEEEEE0000",
"X 	c #FFFF00000000",
"o 	c #ACACFDFDACAC",
"O 	c #8D8DFFFF8D8D",
"+ 	c #5C5CFFFF5C5C",
"@ 	c #B8B8FDFDB8B8",
"# 	c #A9A9FDFDA9A9",
"$ 	c #7B7BFCFC7B7B",
"% 	c #393977773939",
"& 	c #000005050000",
"* 	c #B5B5FDFDB5B5",
"= 	c #B2B2FDFDB2B2",
"- 	c #9696FDFD9696",
"; 	c #5454B9B95454",
": 	c #050550500505",
"> 	c #00000B0B0000",
", 	c #000000000000",
"< 	c #AEAEFDFDAEAE",
"1 	c #9A9AEEEE9A9A",
"2 	c #5555BEBE5555",
"3 	c #000065650000",
"4 	c #000024240000",
"5 	c #B0B0FDFDB0B0",
"6 	c #AAAAFDFDAAAA",
"7 	c #9494F6F69494",
"8 	c #4D4DB9B94D4D",
"9 	c #060648480606",
"0 	c #0C0C1C1C0C0C",
"q 	c #9191EFEF9191",
"w 	c #4646BDBD4646",
"e 	c #010145450101",
"r 	c #A0A0A0A0A0A0",
"t 	c #929292929292",
"y 	c #7A7A7A7A7A7A",
"u 	c #5B5B5B5B5B5B",
"i 	c #9494F0F09494",
"p 	c #4F4FB4B44F4F",
"a 	c #01013C3C0101",
"s 	c #000014140000",
"d 	c #A4A4A4A4A4A4",
"f 	c #9F9FF7F79F9F",
"g 	c #8E8EF4F48E8E",
"h 	c #727272727272",
"j 	c #505050505050",
"k 	c #313131313131",
"l 	c #9292EEEE9292",
"z 	c #A2A2A2A2A2A2",
"x 	c #A2A2F7F7A2A2",
"c 	c #9696F4F49696",
"v 	c #8181EFEF8181",
"b 	c #6464EAEA6464",
"n 	c #444444444444",
"m 	c #292929292929",
"M 	c #191919191919",
"N 	c #ADADFFFFADAD",
"B 	c #9191EDED9191",
"V 	c #4646AEAE4646",
"C 	c #040445450404",
"Z 	c #A2A2FAFAA2A2",
"A 	c #9797F7F79797",
"S 	c #8383F0F08383",
"D 	c #6969E8E86969",
"F 	c #4E4EDFDF4E4E",
"G 	c #3636D8D83636",
"H 	c #232323232323",
"J 	c #161616161616",
"K 	c #101010101010",
"L 	c #8F8FF7F78F8F",
"P 	c #9494FCFC9494",
"I 	c #7A7AFFFF7A7A",
"U 	c #5454FFFF5454",
"Y 	c #9E9E9E9E9E9E",
"T 	c #A4A4FDFDA4A4",
"R 	c #9999FDFD9999",
"E 	c #8282F8F88282",
"W 	c #6161EDED6161",
"Q 	c #4343E0E04343",
"! 	c #2E2ED3D32E2E",
"~ 	c #2121CACA2121",
"^ 	c #1919C3C31919",
"/ 	c #0D0D0D0D0D0D",
"( 	c #0A0A0A0A0A0A",
") 	c #9F9FFDFD9F9F",
"_ 	c #8E8EFCFC8E8E",
"` 	c #6565FCFC6565",
"' 	c #999999999999",
"] 	c #A0A0FCFCA0A0",
"[ 	c #9999FFFF9999",
"{ 	c #8686FFFF8686",
"} 	c #3E3EEBEB3E3E",
"| 	c #2020DDDD2020",
" .	c #1212CECE1212",
"..	c #0E0EC0C00E0E",
"X.	c #1010BCBC1010",
"o.	c #1111B9B91111",
"O.	c #7676FCFC7676",
"+.	c #4646B3B34646",
"@.	c #060655550606",
"#.	c #888888888888",
"$.	c #9090F7F79090",
"%.	c #8D8DF9F98D8D",
"&.	c #8181FDFD8181",
"*.	c #4242F8F84242",
"=.	c #2222EEEE2222",
"-.	c #0E0EE2E20E0E",
";.	c #0707D3D30707",
":.	c #0707C0C00707",
">.	c #0B0BB9B90B0B",
",.	c #1212B7B71212",
"<.	c #13131A1A1C1C",
"1.	c #9D9DFDFD9D9D",
"2.	c #9292FCFC9292",
"3.	c #7777E8E87777",
"4.	c #3C3CB4B43C3C",
"5.	c #00006E6E0000",
"6.	c #000033330000",
"7.	c #656565656565",
"8.	c #6C6CF2F26C6C",
"9.	c #6F6FF0F06F6F",
"0.	c #6A6AF1F16A6A",
"q.	c #5858F2F25858",
"w.	c #3D3DF3F33D3D",
"e.	c #2323F2F22323",
"r.	c #0F0FF1F10F0F",
"t.	c #0505EBEB0505",
"y.	c #0000E0E00000",
"u.	c #0202CBCB0202",
"i.	c #0606B8B80606",
"p.	c #0B0BB5B50B0B",
"a.	c #1010B5B51010",
"s.	c #1212B5B51212",
"d.	c #9C9CFDFD9C9C",
"f.	c #9090FCFC9090",
"g.	c #7171F3F37171",
"h.	c #3434AFAF3434",
"j.	c #0C0C2B2B0C0C",
"k.	c #3D3D3D3D3D3D",
"l.	c #3C3CE5E53C3C",
"z.	c #3737E3E33737",
"x.	c #2929E2E22929",
"c.	c #1919E5E51919",
"v.	c #0B0BEBEB0B0B",
"b.	c #0303F2F20303",
"n.	c #0000F5F50000",
"m.	c #0000EFEF0000",
"M.	c #0101DDDD0101",
"N.	c #0101C5C50101",
"B.	c #0606B4B40606",
"V.	c #0B0BB2B20B0B",
"C.	c #1010B3B31010",
"Z.	c #9898FCFC9898",
"A.	c #7070EAEA7070",
"S.	c #2F2FB4B42F2F",
"D.	c #010152520101",
"F.	c #0505E2E20505",
"G.	c #0101D8D80101",
"H.	c #0202CFCF0202",
"J.	c #0202CCCC0202",
"K.	c #0202D0D00202",
"L.	c #0000ECEC0000",
"P.	c #0000FAFA0000",
"I.	c #0000F0F00000",
"U.	c #0101DBDB0101",
"Y.	c #0202BFBF0202",
"T.	c #0606B2B20606",
"R.	c #7474EBEB7474",
"E.	c #3838AAAA3838",
"W.	c #00001C1C0000",
"Q.	c #0000AAAA0000",
"!.	c #0000A5A50000",
"~.	c #0000AEAE0000",
"^.	c #0000C2C20000",
"/.	c #0000D9D90000",
"(.	c #0000FCFC0000",
").	c #0101D9D90101",
"_.	c #0202BDBD0202",
"`.	c #0606B1B10606",
"'.	c #0B0BB1B10B0B",
"].	c #9B9BFDFD9B9B",
"[.	c #8F8FFCFC8F8F",
"{.	c #7171E9E97171",
"}.	c #000089890000",
"|.	c #000094940000",
" X	c #0000A3A30000",
".X	c #0000BBBB0000",
"XX	c #0000D6D60000",
"oX	c #0000FDFD0000",
"OX	c #9696FFFF9696",
"+X	c #7070E8E87070",
"@X	c #2F2FA4A42F2F",
"#X	c #000079790000",
"$X	c #000085850000",
"%X	c #000092920000",
"&X	c #0000A0A00000",
"*X	c #0000B8B80000",
"=X	c #0000D7D70000",
"-X	c #6F6FF5F56F6F",
";X	c #3030B5B53030",
":X	c #0D0D24240D0D",
">X	c #00007F7F0000",
",X	c #00008D8D0000",
"<X	c #01019D9D0101",
"1X	c #0000BDBD0000",
"2X	c #0000D8D80000",
"3X	c #0101D7D70101",
"4X	c #000096960000",
"5X	c #0404B1B10404",
"6X	c #0404BEBE0404",
"7X	c #0303B0B00303",
"8X	c #0D0DB2B20D0D",
"9X	c #0808B2B20808",
"0X	c #1212B3B31212",
"qX	c #2020B9B92020",
"wX	c #1616B6B61616",
"eX	c #0000D5D50000",
"rX	c #0000EEEE0000",
"tX	c #0606AEAE0606",
"yX	c #0B0BAEAE0B0B",
"uX	c #1010B0B01010",
"iX	c #1212B1B11212",
"pX	c #4444FBFB4444",
"aX	c #0000B2B20000",
"sX	c #0000D1D10000",
"dX	c #0606ABAB0606",
"fX	c #1010ADAD1010",
"gX	c #6D6DFCFC6D6D",
"hX	c #2C2CFFFF2C2C",
"jX	c #000099990000",
"kX	c #0101D6D60101",
"lX	c #0808A6A60808",
"zX	c #0000ACAC0000",
"xX	c #8B8BFCFC8B8B",
"cX	c #4A4AFBFB4A4A",
"vX	c #13135D5D1313",
"bX	c #000073730000",
"nX	c #0000E9E90000",
"mX	c #9898FDFD9898",
"MX	c #8888FCFC8888",
"NX	c #2B2BA9A92B2B",
"BX	c #00005A5A0000",
"VX	c #000081810000",
"CX	c #0000B0B00000",
"ZX	c #000061610000",
"AX	c #6E6EE6E66E6E",
"SX	c #2B2BAEAE2B2B",
"DX	c #0000CECE0000",
"FX	c #00006A6A0000",
"GX	c #00004D4D0000",
"HX	c #2F2FADAD2F2F",
"JX	c #06064C4C0606",
"KX	c #00002D2D0000",
"LX	c #020242420202",
"PX	c #7171FCFC7171",
"IX	c #5D5DE4E45D5D",
"UX	c #2929B0B02929",
"YX	c #4C4CF6F64C4C",
"TX	c #1818A1A11818",
"                                                                        .         .             ",
"                                                                          .       .         .   ",
"                                                                            .     .       .     ",
"                                                                              .   .     .       ",
"                                                                                . . . .         ",
"                                                                        . . . . . X X . . . . . ",
"                                                        o O +                   . X X .         ",
"                                                      @ # $ % &                 . . . .         ",
"                                                    * = - ; : > ,             .   .     .       ",
"                                                  = < 1 2 3 4 > ,           .     .       .     ",
"                                                5 6 7 8 9 0 > ,           .       .         .   ",
"                                              5 5 q w e > & ,           .         .           . ",
"                            r t y u         5 6 i p a s > ,                                     ",
"                          d f g h j k     5 6 l w 9 > & ,                                       ",
"                        z x c v b n m M 6 N B V C > & ,                                         ",
"                      r Z A S D F G H J K L w a 0 & ,                     P I U                 ",
"                    Y T R E W Q ! ~ ^ K / ( e > & ,                     ) _ ` % &               ",
"                  ' ] [ { ` } |  ...X.o.K / ( > ,                     ) - O.+.@.s ,             ",
"                #.$.%.&.` *.=.-.;.:.>.o.,.K <.(                     1.2.3.4.5.6.> ,             ",
"              7.8.9.0.q.w.e.r.t.y.u.i.p.a.s.K / (                 d.f.g.h.: j.> ,               ",
"              k.} l.z.x.c.v.b.n.m.M.N.B.V.C.s.K / (             d.Z.A.S.D.s & ,                 ",
"              / F.G.H.J.K.M.L.n.P.I.U.Y.T.V.C.s.K / (         d.f.R.E.e W.> ,                   ",
"                , Q.!.!.~.^./.L.P.(.I.)._.`.'.C.s.K / (     ].[.{.S.: s & ,                     ",
"                  , }.}.|. X.XXXL.(.oXI.G._.`.'.C.s.K / ( - OX+X@X: s & ,                       ",
"                    , #X$X%X&X*X=Xm.oXoXm.G._.`.'.C.s.K / ( -X;Xe :X& ,                         ",
"                      , >X,X<XQ.1X2Xm.oXoXm.3X_.`.'.C.s.K / ( D.W.& ,                           ",
"                        , 4X X~.5X6XG.m.oXoXm.3X_.`.'.C.s.K / ( > ,                             ",
"                          , 7XV.8X9X_.=Xm.oXoXm.3X_.`.'.C.0XK ( (                               ",
"                            H qXwX'.~.*XeXrXoXoXm.3X_.tXyXuXiX/ & ,                             ",
"                            pXk wX~. X XaXsXL.(.oXm.3X_.dXyXfXV., , ,                           ",
"                          gXU hX, 4X,X,XjX~.sXL.P.(.rXkX_.dXlXQ.zX, , ,                         ",
"                        xXO.cXvX, , 5.bX$X|.~.sXL.P.P.nXsX*X!.jX%X}., ,                         ",
"                      mXMX` NX9 > , , BX5.VX|.CXsXnXn.rX2X.X&X$XbXZXBX,                         ",
"                    ]._ AXSXZX4 > ,   , BXbX$X4XCXDXy.y.sX~.,XFXGXa 6.,                         ",
"                  ].[.g.HXJXj.> ,       , 3 #X$X|.~.^.N.aX%XFXe KX6.,                           ",
"                d.Z.A.S.D.s & ,           , 5.#X$X%X&X&X,XFXe KXKX,                             ",
"              d.f.R.E.e W.> ,               , 5.bX#XVX#XZXLXKXKX,                               ",
"            ].[.{.S.: s & ,                   , 5.FX3 D.a KXKX,                                 ",
"          - OX+X@X: s & ,                       , 3 D.a KX6.,                                   ",
"        _ MX-X;Xe :X& ,                           , e 6.6.,                                     ",
"      PXPXIXUXD.W.& ,                               , , ,                                       ",
"      YXz.TXLXs > ,                                                                             ",
"      ^ <XD.W.& ,                                                                               ",
"      a KXs & ,                                                                                 ",
"      , , , ,                                                                                   ",
"                                                                                                ",
"                                                                                                ",
"                                                                                                "};
