/* XPM */
static char * OneArrow_xpm[] = {
"68 48 63 1",
" 	c none",
".	c #1A1D1B",
"+	c #00A933",
"@	c #060606",
"#	c #3B5242",
"$	c #2B934A",
"%	c #14A13F",
"&	c #2C342E",
"*	c #189F41",
"=	c #3B7F50",
"-	c #0DA43B",
";	c #171817",
">	c #1F9B45",
",	c #40684C",
"'	c #394B3E",
")	c #3E5B46",
"!	c #03A835",
"~	c #15A13F",
"{	c #1D9C44",
"]	c #3A4E40",
"^	c #14A13E",
"/	c #29302B",
"(	c #189F40",
"_	c #0CA43B",
":	c #131414",
"<	c #1D9D44",
"[	c #04A835",
"}	c #16A03F",
"|	c #040404",
"1	c #17A041",
"2	c #303A33",
"3	c #0BA53A",
"4	c #239947",
"5	c #313C34",
"6	c #36874F",
"7	c #229A46",
"8	c #010101",
"9	c #348B4E",
"0	c #3E5D48",
"a	c #2D924B",
"b	c #11A33C",
"c	c #0B0C0C",
"d	c #39844F",
"e	c #3E764F",
"f	c #1A9F42",
"g	c #17A040",
"h	c #212522",
"i	c #39824F",
"j	c #338B4E",
"k	c #09A638",
"l	c #299449",
"m	c #35443A",
"n	c #36884F",
"o	c #020202",
"p	c #35884F",
"q	c #3F6149",
"r	c #0F100F",
"s	c #3D7A4F",
"t	c #232824",
"u	c #308E4D",
"v	c #161716",
"w	c #37473B",
"x	c #030303",
"                                                                    ",
"                                                                    ",
"                                                                    ",
"                                                                    ",
"                                                                    ",
"                                                                    ",
"                                                                    ",
"                                                                    ",
"                                             .++@@                  ",
"                                             .++##                  ",
"                                             .++$$                  ",
"                                             .++%%&                 ",
"                                             .++**=                 ",
"                                             .++++-;;               ",
"                                             .++++>,,               ",
"               '''''''''''''''''''''''''''''')++++!~~@              ",
"               ++++++++++++++++++++++++++++++++++++{{]              ",
"               ++++++++++++++++++++++++++++++++++++--$              ",
"               ++++++++++++++++++++++++++++++++++++++^//            ",
"               ++++++++++++++++++++++++++++++++++++++(==            ",
"               +++++++++++++++++++++++++++++++++++++++__:           ",
"               +++++++++++++++++++++++++++++++++++++++<<,           ",
"               +++++++++++++++++++++++++++++++++++++++[[}||         ",
"               +++++++++++++++++++++++++++++++++++++++++122         ",
"               +++++++++++++++++++++++++++++++++++++++33455         ",
"               +++++++++++++++++++++++++++++++++++++++66788         ",
"               +++++++++++++++++++++++++++++++++++++++990           ",
"               ++++++++++++++++++++++++++++++++++++++abbc           ",
"               ++++++++++++++++++++++++++++++++++++++dee            ",
"               ++++++++++++++++++++++++++++++++++++ffghh            ",
"               ++++++++++++++++++++++++++++++++++++iij              ",
"               +++++++++++++++++++++++++++++++++++kllm              ",
"                                             .++++n>>o              ",
"                                             .++++pqq               ",
"                                             .++$$brr               ",
"                                             .++iis                 ",
"                                             .++11t                 ",
"                                             .++uu                  ",
"                                             v++ww                  ",
"                                             xkkxx                  ",
"                                                                    ",
"                                                                    ",
"                                                                    ",
"                                                                    ",
"                                                                    ",
"                                                                    ",
"                                                                    ",
"                                                                    "};
