/* XPM */
static char * TwoArrows_xpm[] = {
"68 42 84 1",
" 	c none",
".	c #0D0E0D",
"+	c #354439",
"@	c #070707",
"#	c #1A1D1B",
"$	c #00A933",
"%	c #0FA33C",
"&	c #3B8050",
"*	c #37483C",
"=	c #090909",
"-	c #0BA639",
";	c #39844F",
">	c #394B3E",
",	c #0B0B0B",
"'	c #09A638",
")	c #37874F",
"!	c #3B5141",
"~	c #0F100F",
"{	c #07A637",
"]	c #35894E",
"^	c #3C5443",
"/	c #121312",
"(	c #04A735",
"_	c #328D4D",
":	c #3E5A46",
"<	c #141514",
"[	c #03A835",
"}	c #358A4E",
"|	c #1D211E",
"1	c #3E784F",
"2	c #0DA43B",
"3	c #3A8150",
"4	c #12A23D",
"5	c #3C7D50",
"6	c #14A13F",
"7	c #3D7A50",
"8	c #333F37",
"9	c #050505",
"0	c #17A041",
"a	c #3E764F",
"b	c #2F3A33",
"c	c #030303",
"d	c #1C9D43",
"e	c #3F724F",
"f	c #2D3530",
"g	c #020202",
"h	c #1A1C1A",
"i	c #29302B",
"j	c #2F8F4C",
"k	c #3E5D48",
"l	c #191B1A",
"m	c #01A834",
"n	c #2D924B",
"o	c #3F6149",
"p	c #1C1F1D",
"q	c #29954A",
"r	c #40664B",
"s	c #1F2220",
"t	c #269848",
"u	c #40694C",
"v	c #242926",
"w	c #219A45",
"x	c #406C4D",
"y	c #282E2A",
"z	c #1D9D44",
"A	c #3F714E",
"B	c #1E211F",
"C	c #1F9B45",
"D	c #3F6F4E",
"E	c #2A312C",
"F	c #229A46",
"G	c #406B4D",
"H	c #262B27",
"I	c #289649",
"J	c #40684C",
"K	c #222724",
"L	c #2A944A",
"M	c #3F644B",
"N	c #02A935",
"O	c #2E914C",
"P	c #3F5F48",
"Q	c #318E4D",
"R	c #3E5C47",
"S	c #171918",
"                                                                    ",
"                                                                    ",
"                                                                    ",
"                                                                    ",
"                                                                    ",
"                                                                    ",
"                                                                    ",
"                                .+@@                                ",
"                                #$%%&**=                            ",
"                                #$$$$$$-;;>,,                       ",
"                                #$$$$$$$$$$'')!!~                   ",
"                                #$$$$$$$$$$$$$$${]]^//              ",
"                                #$$$$$$$$$$$$$$$$$$$((_::<          ",
"                                #$$$$$$$$$$$$$$$$$$$$$$$$[}}|       ",
"              1$$$$$$$$$$$$$$$$$$$$$$$$$$$$$$$$$$$$$$$233*==        ",
"                                #$$$$$$$$$$$$$$$$445++@             ",
"                                #$$$$$$$$$$$$677899                 ",
"                                #$$$$$$$00abbc                      ",
"                                #$$$deefgg                          ",
"                                haii                                ",
"                                #[jjkll                             ",
"                                #$$$$mmnoop                         ",
"                                #$$$$$$$$$$qqrss                    ",
"                                #$$$$$$$$$$$$$$$tuuv                ",
"                                #$$$$$$$$$$$$$$$$$$$wwxyy           ",
"                                #$$$$$$$$$$$$$$$$$$$$$$$$zAAB       ",
"              1$$$$$$$$$$$$$$$$$$$$$$$$$$$$$$$$$$$$$$$$CCDEE        ",
"                                #$$$$$$$$$$$$$$$$$$FGGH             ",
"                                #$$$$$$$$$$$$$IIJKK                 ",
"                                #$$$$$$$mmLMMB                      ",
"                                #$$$NOOP##                          ",
"                                lQRRS                               ",
"                                                                    ",
"                                                                    ",
"                                                                    ",
"                                                                    ",
"                                                                    ",
"                                                                    ",
"                                                                    ",
"                                                                    ",
"                                                                    ",
"                                                                    "};
